X: 327
T: A Punch In The Dark
R: reel
M: 4/4
K: Bdorian
|:~B3d cBdc|BdcA FEFB|dcBd cBdB|caag afec|
~B3d cBdc|BdcA EFAF|D~E3 ABcA|1 caag afec:|2 caag aece||
|:~a3g aece|acea gbbg|a2ag aece|dcBd cAcd|
eaag aece|acea gbbg|~a3g aece|1 dcBd cAce:|2 dcBd cBdc||

